Otagle3/Assets/ikonySvG/SpisOznaczenGraficznych.svg

<svg id="SVGRoot" width="206px" height="206px" version="1.1" viewBox="0 0 206 206" xmlns="http://www.w3.org/2000/svg">
 <g transform="matrix(3.7795 0 0 3.7795 -1795.2 2502.6)">
  <flowRoot fill="black" font-family="sans-serif" font-size="40px" letter-spacing="0px" word-spacing="0px" style="line-height:1.25" xml:space="preserve"><flowRegion><rect x="-392.69" y="-63.57" width="758.02" height="397.52"/></flowRegion><flowPara/></flowRoot>
  <flowRoot fill="black" font-family="sans-serif" font-size="40px" letter-spacing="0px" word-spacing="0px" style="line-height:1.25" xml:space="preserve"><flowRegion><rect x="-251.87" y="-84.492" width="624.44" height="455.45"/></flowRegion><flowPara/></flowRoot>
  <flowRoot fill="black" font-family="sans-serif" font-size="40px" letter-spacing="0px" word-spacing="0px" style="line-height:1.25" xml:space="preserve"><flowRegion><rect x="-202.78" y="-50.695" width="473.96" height="281.64"/></flowRegion><flowPara/></flowRoot>
  <flowRoot fill="black" font-family="sans-serif" font-size="40px" letter-spacing="0px" word-spacing="0px" style="line-height:1.25" xml:space="preserve"><flowRegion><rect x="-86.906" y="-78.859" width="516.61" height="410.39"/></flowRegion><flowPara/></flowRoot>
  <flowRoot fill="black" font-family="sans-serif" font-size="40px" letter-spacing="0px" word-spacing="0px" style="line-height:1.25" xml:space="preserve"><flowRegion><rect x="-81.273" y="-32.188" width="309" height="322.68"/></flowRegion><flowPara/></flowRoot>
  <g transform="translate(447.73 -2.6078e-6)">
   <rect x="28.514" y="-660.87" width="52.396" height="52.396" fill="#db3b3b" stroke="#000" stroke-linecap="round" stroke-width=".52068" style="paint-order:fill markers stroke"/>
   <text x="54.829727" y="-620.82642" fill="#ffffff" font-family="sans-serif" font-size="4.9389px" letter-spacing="0px" stroke-width=".26458" text-align="center" text-anchor="middle" word-spacing="0px" style="line-height:1.25" xml:space="preserve"><tspan x="54.829727" y="-620.82642" text-align="center">Spis oznaczeń</tspan><tspan x="54.829727" y="-612.88892" text-align="center">graficznych</tspan></text>
   <rect x="38.671" y="-653.42" width="32.741" height="4.1427" ry="2.0713" fill="#fff" style="paint-order:fill markers stroke"/>
   <g transform="matrix(.26458 0 0 .26458 41.812 -649.94)" fill="#fff">
    <path d="m42 19h-18c-2.757 0-5 2.243-5 5v18c0 2.757 2.243 5 5 5h18c2.757 0 5-2.243 5-5v-18c0-2.757-2.243-5-5-5zm-9 20c-1.017 0-1.981-.19-2.853-.524l-3.147.524.402-2.409c-.877-1.002-1.402-2.242-1.402-3.591 0-3.314 3.134-6 7-6s7 2.686 7 6-3.134 6-7 6zm43 14h-18c-2.757 0-5 2.243-5 5v18c0 2.757 2.243 5 5 5h18c2.757 0 5-2.243 5-5v-18c0-2.757-2.243-5-5-5zm-3.624 14.416-7.599 5.066c-.332.221-.777-.017-.777-.416v-10.132c0-.399.445-.638.777-.416l7.599 5.066c.297.198.297.634 0 .832zm-30.376-14.416h-18c-2.757 0-5 2.243-5 5v18c0 2.757 2.243 5 5 5h18c2.757 0 5-2.243 5-5v-18c0-2.757-2.243-5-5-5zm-3 18c0 1.105-.895 2-2 2h-8c-1.105 0-2-.895-2-2v-6h12zm0-7h-12v-1c0-1.105.895-2 2-2h8c1.105 0 2 .895 2 2zm37-45h-18c-2.757 0-5 2.243-5 5v18c0 2.757 2.243 5 5 5h18c2.757 0 5-2.243 5-5v-18c0-2.757-2.243-5-5-5zm-2 18.5c0 .276-.224.5-.5.5h-13c-.276 0-.5-.224-.5-.5v-6.517l7 3.063 7-3.063zm0-7.608-7 3.062-7-3.062v-1.392c0-.276.224-.5.5-.5h13c.276 0 .5.224.5.5z" fill="#fff"/>
   </g>
  </g>
 </g>
</svg>

<?xml version="1.0" encoding="UTF-8" standalone="no"?>
<svg
   xmlns:osb="http://www.openswatchbook.org/uri/2009/osb"
   xmlns:dc="http://purl.org/dc/elements/1.1/"
   xmlns:cc="http://creativecommons.org/ns#"
   xmlns:rdf="http://www.w3.org/1999/02/22-rdf-syntax-ns#"
   xmlns:svg="http://www.w3.org/2000/svg"
   xmlns="http://www.w3.org/2000/svg"
   id="svg47"
   version="1.1"
   viewBox="0 0 52.758294 52.758296"
   height="199.40143"
   width="199.40143">
  <defs
     id="defs42">
    <pattern
       id="EMFhbasepattern"
       patternUnits="userSpaceOnUse"
       width="6"
       height="6"
       x="0"
       y="0" />
    <marker
       style="overflow:visible"
       id="Arrow1Mend-5-0"
       refX="0"
       refY="0"
       orient="auto">
      <path
         transform="matrix(-0.4,0,0,-0.4,-4,0)"
         style="fill:#000000;fill-opacity:1;fill-rule:evenodd;stroke:#000000;stroke-width:1.00000003pt;stroke-opacity:1"
         d="M 0,0 5,-5 -12.5,0 5,5 Z"
         id="path1146-3-3" />
    </marker>
    <marker
       style="overflow:visible"
       id="Arrow1Mend-5-3"
       refX="0"
       refY="0"
       orient="auto">
      <path
         transform="matrix(-0.4,0,0,-0.4,-4,0)"
         style="fill:#000000;fill-opacity:1;fill-rule:evenodd;stroke:#000000;stroke-width:1.00000003pt;stroke-opacity:1"
         d="M 0,0 5,-5 -12.5,0 5,5 Z"
         id="path1146-3-9" />
    </marker>
    <marker
       orient="auto"
       refY="0"
       refX="0"
       id="Arrow1Mend-5-0-4"
       style="overflow:visible">
      <path
         id="path1146-3-3-8"
         d="M 0,0 5,-5 -12.5,0 5,5 Z"
         style="fill:#ffffff;fill-opacity:1;fill-rule:evenodd;stroke:#ffffff;stroke-width:1.00000003pt;stroke-opacity:1"
         transform="matrix(-0.4,0,0,-0.4,-4,0)" />
    </marker>
    <marker
       orient="auto"
       refY="0"
       refX="0"
       id="Arrow1Mend-5-3-8"
       style="overflow:visible">
      <path
         id="path1146-3-9-5"
         d="M 0,0 5,-5 -12.5,0 5,5 Z"
         style="fill:#ffffff;fill-opacity:1;fill-rule:evenodd;stroke:#ffffff;stroke-width:1.00000003pt;stroke-opacity:1"
         transform="matrix(-0.4,0,0,-0.4,-4,0)" />
    </marker>
    <marker
       style="overflow:visible"
       id="Arrow1Mend"
       refX="0"
       refY="0"
       orient="auto">
      <path
         transform="matrix(-0.4,0,0,-0.4,-4,0)"
         style="fill:#000000;fill-opacity:1;fill-rule:evenodd;stroke:#000000;stroke-width:1.00000003pt;stroke-opacity:1"
         d="M 0,0 5,-5 -12.5,0 5,5 Z"
         id="path1146" />
    </marker>
    <marker
       orient="auto"
       refY="0"
       refX="0"
       id="Arrow1Mend-5"
       style="overflow:visible">
      <path
         id="path1146-3"
         d="M 0,0 5,-5 -12.5,0 5,5 Z"
         style="fill:#ffffff;fill-opacity:1;fill-rule:evenodd;stroke:#ffffff;stroke-width:1.00000003pt;stroke-opacity:1"
         transform="matrix(-0.4,0,0,-0.4,-4,0)" />
    </marker>
    <marker
       style="overflow:visible"
       id="Arrow1Mstart"
       refX="0"
       refY="0"
       orient="auto">
      <path
         transform="matrix(0.4,0,0,0.4,4,0)"
         style="fill:#000000;fill-opacity:1;fill-rule:evenodd;stroke:#000000;stroke-width:1.00000003pt;stroke-opacity:1"
         d="M 0,0 5,-5 -12.5,0 5,5 Z"
         id="path1143" />
    </marker>
    <marker
       orient="auto"
       refY="0"
       refX="0"
       id="Arrow1Mstart-1"
       style="overflow:visible">
      <path
         id="path1143-7"
         d="M 0,0 5,-5 -12.5,0 5,5 Z"
         style="fill:#ffffff;fill-opacity:1;fill-rule:evenodd;stroke:#ffffff;stroke-width:1.00000003pt;stroke-opacity:1"
         transform="matrix(0.4,0,0,0.4,4,0)" />
    </marker>
    <marker
       style="overflow:visible"
       id="Arrow1Lend"
       refX="0"
       refY="0"
       orient="auto">
      <path
         transform="matrix(-0.8,0,0,-0.8,-10,0)"
         style="fill:#000000;fill-opacity:1;fill-rule:evenodd;stroke:#000000;stroke-width:1.00000003pt;stroke-opacity:1"
         d="M 0,0 5,-5 -12.5,0 5,5 Z"
         id="path1140" />
    </marker>
    <marker
       style="overflow:visible"
       id="Arrow1Lstart"
       refX="0"
       refY="0"
       orient="auto">
      <path
         transform="matrix(0.8,0,0,0.8,10,0)"
         style="fill:#000000;fill-opacity:1;fill-rule:evenodd;stroke:#000000;stroke-width:1.00000003pt;stroke-opacity:1"
         d="M 0,0 5,-5 -12.5,0 5,5 Z"
         id="path1137" />
    </marker>
    <marker
       orient="auto"
       refY="0"
       refX="0"
       id="Arrow1Lend-5"
       style="overflow:visible">
      <path
         id="path1140-4"
         d="M 0,0 5,-5 -12.5,0 5,5 Z"
         style="fill:#ffffff;fill-opacity:1;fill-rule:evenodd;stroke:#ffffff;stroke-width:1.00000003pt;stroke-opacity:1"
         transform="matrix(-0.8,0,0,-0.8,-10,0)" />
    </marker>
    <marker
       orient="auto"
       refY="0"
       refX="0"
       id="Arrow1Lstart-93"
       style="overflow:visible">
      <path
         id="path1137-7"
         d="M 0,0 5,-5 -12.5,0 5,5 Z"
         style="fill:#ffffff;fill-opacity:1;fill-rule:evenodd;stroke:#ffffff;stroke-width:1.00000003pt;stroke-opacity:1"
         transform="matrix(0.8,0,0,0.8,10,0)" />
    </marker>
    <linearGradient
       id="linearGradient4460"
       osb:paint="solid">
      <stop
         style="stop-color:#db3b3b;stop-opacity:1;"
         offset="0"
         id="stop4458" />
    </linearGradient>
  </defs>
  <metadata
     id="metadata45">
    <rdf:RDF>
      <cc:Work
         rdf:about="">
        <dc:format>image/svg+xml</dc:format>
        <dc:type
           rdf:resource="http://purl.org/dc/dcmitype/StillImage" />
        <dc:title></dc:title>
      </cc:Work>
    </rdf:RDF>
  </metadata>
  <g
     id="g8556"
     transform="translate(49.836509,-375.23204)">
    <g
       id="g5305">
      <g
         id="g734"
         style="display:inline"
         transform="translate(-78.09003,1036.6033)">
        <rect
           style="fill:#db3b3b;fill-opacity:1;stroke:#000000;stroke-width:0.520679;stroke-linecap:round;stroke-miterlimit:4;stroke-dasharray:none;paint-order:fill markers stroke"
           id="rect835-2-0-2-8-1-5"
           width="52.395985"
           height="52.395985"
           x="28.51387"
           y="-660.87268" />
        <text
           id="text858-5-83-7"
           y="-619.03149"
           x="54.829727"
           style="font-size:6.3499999px;line-height:1.25;font-family:voestalpine;-inkscape-font-specification:voestalpine;text-align:center;letter-spacing:0px;word-spacing:0px;text-anchor:middle;stroke-width:0.26458299"
           xml:space="preserve"><tspan
             style="font-size:6.3499999px;text-align:center;text-anchor:middle;fill:#ffffff;fill-opacity:1;stroke-width:0.26458299"
             y="-619.03149"
             x="54.829727"
             id="tspan921-84-5">Spis oznaczeń</tspan><tspan
             style="font-size:6.3499999px;text-align:center;text-anchor:middle;fill:#ffffff;fill-opacity:1;stroke-width:0.26458299"
             y="-611.09399"
             x="54.829727"
             id="tspan1249">graficznych</tspan></text>
        <rect
           style="fill:#ffffff;fill-opacity:1;stroke:none;stroke-width:0;stroke-linecap:round;stroke-miterlimit:4;stroke-dasharray:none;stroke-opacity:1;paint-order:fill markers stroke"
           id="rect1132-1-0"
           width="32.740517"
           height="4.1426778"
           x="38.670761"
           y="-653.41705"
           ry="2.0713389" />
        <g
           style="fill:#ffffff;fill-opacity:1"
           id="g1247"
           transform="matrix(0.26458333,0,0,0.26458333,41.811837,-649.94334)">
          <path
             id="path1236"
             d="M 42,19 H 24 c -2.757,0 -5,2.243 -5,5 v 18 c 0,2.757 2.243,5 5,5 h 18 c 2.757,0 5,-2.243 5,-5 V 24 c 0,-2.757 -2.243,-5 -5,-5 z m -9,20 c -1.017,0 -1.981,-0.19 -2.853,-0.524 L 27,39 27.402,36.591 C 26.525,35.589 26,34.349 26,33 c 0,-3.314 3.134,-6 7,-6 3.866,0 7,2.686 7,6 0,3.314 -3.134,6 -7,6 z M 76,53 H 58 c -2.757,0 -5,2.243 -5,5 v 18 c 0,2.757 2.243,5 5,5 h 18 c 2.757,0 5,-2.243 5,-5 V 58 c 0,-2.757 -2.243,-5 -5,-5 z m -3.624,14.416 -7.599,5.066 C 64.445,72.703 64,72.465 64,72.066 V 61.934 c 0,-0.399 0.445,-0.638 0.777,-0.416 l 7.599,5.066 c 0.297,0.198 0.297,0.634 0,0.832 z M 42,53 H 24 c -2.757,0 -5,2.243 -5,5 v 18 c 0,2.757 2.243,5 5,5 h 18 c 2.757,0 5,-2.243 5,-5 V 58 c 0,-2.757 -2.243,-5 -5,-5 z m -3,18 c 0,1.105 -0.895,2 -2,2 h -8 c -1.105,0 -2,-0.895 -2,-2 v -6 h 12 z m 0,-7 H 27 v -1 c 0,-1.105 0.895,-2 2,-2 h 8 c 1.105,0 2,0.895 2,2 z M 76,19 H 58 c -2.757,0 -5,2.243 -5,5 v 18 c 0,2.757 2.243,5 5,5 h 18 c 2.757,0 5,-2.243 5,-5 V 24 c 0,-2.757 -2.243,-5 -5,-5 z m -2,18.5 c 0,0.276 -0.224,0.5 -0.5,0.5 h -13 C 60.224,38 60,37.776 60,37.5 v -6.517 l 7,3.063 7,-3.063 z m 0,-7.608 -7,3.062 -7,-3.062 V 28.5 C 60,28.224 60.224,28 60.5,28 h 13 c 0.276,0 0.5,0.224 0.5,0.5 z"
             style="fill:#ffffff;fill-opacity:1" />
        </g>
      </g>
    </g>
  </g>
</svg>
